img/icons/loop.svg

<svg width="16" height="16" viewBox="0 0 16 16" fill="none" xmlns="http://www.w3.org/2000/svg">
<path d="M14.9891 14.0205L10.424 9.45547C11.1324 8.53965 11.5156 7.41992 11.5156 6.24219C11.5156 4.83242 10.9654 3.51055 9.97051 2.51387C8.97559 1.51719 7.6502 0.96875 6.24219 0.96875C4.83418 0.96875 3.50879 1.51895 2.51387 2.51387C1.51719 3.50879 0.96875 4.83242 0.96875 6.24219C0.96875 7.6502 1.51895 8.97559 2.51387 9.97051C3.50879 10.9672 4.83242 11.5156 6.24219 11.5156C7.41992 11.5156 8.53789 11.1324 9.45371 10.4258L14.0188 14.9891C14.0321 15.0025 14.048 15.0131 14.0655 15.0203C14.083 15.0276 14.1018 15.0313 14.1207 15.0313C14.1396 15.0313 14.1584 15.0276 14.1759 15.0203C14.1934 15.0131 14.2093 15.0025 14.2227 14.9891L14.9891 14.2244C15.0025 14.211 15.0131 14.1951 15.0203 14.1776C15.0276 14.1601 15.0313 14.1414 15.0313 14.1225C15.0313 14.1035 15.0276 14.0848 15.0203 14.0673C15.0131 14.0498 15.0025 14.0339 14.9891 14.0205ZM9.02656 9.02656C8.28125 9.77012 7.29336 10.1797 6.24219 10.1797C5.19102 10.1797 4.20313 9.77012 3.45781 9.02656C2.71426 8.28125 2.30469 7.29336 2.30469 6.24219C2.30469 5.19102 2.71426 4.20137 3.45781 3.45781C4.20313 2.71426 5.19102 2.30469 6.24219 2.30469C7.29336 2.30469 8.28301 2.7125 9.02656 3.45781C9.77012 4.20313 10.1797 5.19102 10.1797 6.24219C10.1797 7.29336 9.77012 8.28301 9.02656 9.02656Z" />
</svg>

<svg width="16" height="16" fill="none" xmlns="http://www.w3.org/2000/svg"><path d="M14.99 14.02l-4.566-4.565a5.226 5.226 0 001.092-3.213 5.24 5.24 0 00-1.545-3.728A5.235 5.235 0 006.242.969a5.24 5.24 0 00-3.728 1.545A5.232 5.232 0 00.969 6.242c0 1.408.55 2.734 1.545 3.729a5.231 5.231 0 003.728 1.545 5.23 5.23 0 003.212-1.09l4.565 4.563a.142.142 0 00.102.042.143.143 0 00.102-.042l.766-.765a.143.143 0 00.031-.157.143.143 0 00-.03-.046zM9.026 9.027a3.916 3.916 0 01-2.785 1.153 3.917 3.917 0 01-2.784-1.153 3.916 3.916 0 01-1.153-2.785c0-1.051.41-2.04 1.153-2.784a3.916 3.916 0 012.784-1.153c1.051 0 2.041.407 2.785 1.153a3.916 3.916 0 011.153 2.784c0 1.051-.41 2.041-1.153 2.785z"/></svg>
